X:1
T:Io amo e certo vivo
T:Luca Marenzio
T:Source : Il secondo Libro delle canzonette alla Napolitana a tre voci---Venetia---G.Vincenti---1587. Editor : André Vierendeels (03/05/17).
T:Notes : Original clefs : G2, C1, F3 Editorial accidentals above the staff "Seconda impressione" Music collected by Attolio Gualtieri
T:Io amo e certo vivo
T:©
T:©
C:Luca Marenzio
Z:©
%%score [ 1 2 3 ]
L:1/8
Q:1/4=120
M:4/4
K:C
V:1 treble nm="Soprano 1" snm="S 1"
V:2 treble nm="Soprano 2" snm="S 2"
V:3 treble-8 nm="Tenor" snm="T"
V:1
"^1)" d8 | f8 | e2 e4 f2 | g8 | e2 g2 f2 e2 | d3 d d2 e2 | f2 f2 e4 | d8 :: z2 d2 d4- | %9
w: Io|a-|mo'e cer- to|vi-|vo, per trop- po'a-|mar de lo mio|spir- to pri-|vo,|nè so|
w: Io|ar-|do'e lo mio|fo-|co, ar- de si|che ri- splen- de'in|o- gni lo-|co,|ne sol|
 d2 e2 c2 d2 | B8 | e2 e4 d2 | c2 B2 A4 | B2 c4 B2 | A8 | z4 g4- | g4 e2 d2 | B2 c2 d4 | %18
w: _ nè verg- gi'ohi-|me,|se m'a- mi'A-|mor cru- del|co- me'a- mo|te,|deh|_ mo- str'al-|men d'a- ma-|
w: _ u- na sol|dram-|ma'in te'è de-|sto'a- mor de|la mia fiam-|ma,|deh|_ fa ch'io'il|veg- gia'ho- ma-|
 d2 c2 B3 A | G2 G2 A4 | A2 B2 G3 G | G2 G2 A4 | G8 :| %23
w: re, per non mi|far pe- na-|re, per non mi|far pe- na-|re.|
w: i, ne li tuoi|dol- ci ra-|i, ne li tuoi|dol- ci ra-|i.|
V:2
"^2)""^1)" B8 | d8 | ^c2 c4 d2 | e8 | c2 e2 d2 c2 | B3 B B2 ^c2 | d2 d2 ^c4 | d8 :: z2 B2 B4- | %9
w: Io|a-|mo'e cer- to|vi-|vo, per trop- po'a-|mar de lo mio|spir- to pri-|vo,|nè so|
w: Io|pian-|go'e cos- si|for-|te, che'il lun- go|pian- to'al fin mi|dar à mor-|te,|nè so|
 B2 c2 A2 A2 | ^G8 | z2 c2 c2 B2 | A2 G2 ^F4 | G2 A4 G2 | ^F8 | z4 e4- | e4 c2 A2 | ^G2 A2 B4 | %18
w: _ nè veg- gi'ohi-|me,|se m'a- mi'A-|mor cru- del|co- me'a- mo|te,|deh|_ mo- str'al-|men d'a- ma-|
w: se'il mio lan- gui-|re,|pie- ta- d'e|duol di me|ti fa sen-|tir',|deh|_ sin- ge-|me- lo'al- me-|
 B2 A2 G3 F | E2 G2 ^F4 | ^F2 G2 E3 D | E2 G2 ^F4 | G8 :| %23
w: re, per non mi|far pe- na-|re, per non mi|far pe- na-|re.|
w: no, nel vol- to|tuo se- re-|no, nel vol- to|tuo se- re-|no.|
V:3
"^3)""^1)""^4)" G8 | D8 | A2 A4 d2 |"^-natural" c8 | c2 C2 F2 A2 | G3 G G2 E2 | D2 D2 A4 | D8 :: %8
w: Io|a-|mo'e cer- to|vi-|vo, per trop- po'a-|mar de- lo mio|spir- to pri-|vo,|
w: Hor|ch'a-|mo, plo- ro'et|ar-|do, e'in te non|scor- go'un' a- mo-|ro- sa dar-|do,|
 G4 G4- | G2 E2 F2 D2 | E8 | C2 C4 D2 | F2 G2 D4 |"^-natural" E2 F4 G2 | D8 | z4 C4- | C4 C2 D2 | %17
w: nè so|_ nè veg- gi'ohi-|me,|se m'a- mi'A-|mor cru- del|co- me'a- mo|te|deh|_ mo- str'al-|
w: in- vo-|* ca- ro lo|sde-|gno, che fà|ra- gion so-|mar' nel Re-|gno,|deh|_ non vo-|
"^-natural" E2 F2 G4 | G2 F2 E3 D | C2 C2 D4 | D2 B,2 C3 B, | C2 E2 D4 | G8 :| %23
w: men d'a- ma-|re, per non mi|far pe- na-|re, per non mi|far pe- na-|re.|
w: ler che'l chia-|mi, ma fa c'io|veg- va ch'a-|mi, ma fa ch'io|veg- ga ch'a-|mi.|

